src/assets/images/generic-landing/only-app-landing.svg

<svg width="310" height="172" viewBox="0 0 310 172" fill="none" xmlns="http://www.w3.org/2000/svg">
<g clip-path="url(#clip0_6058_4786)">
<path d="M208.98 198.6H83.3916C68.6092 198.6 72.3359 164.439 78.4227 152.389C86.6213 136.489 99.1677 131.768 112.584 126.178C118.795 123.57 131.838 114.626 134.695 102.576C137.801 89.6573 145.627 78.6016 156.185 72.639C167.117 66.6764 182.272 66.0553 193.328 71.7695C199.539 74.9992 206.371 80.9618 208.98 86.676C211.961 93.2598 213.203 101.334 214.073 110.03C215.439 125.06 216.681 140.34 217.551 153.507C218.669 169.283 219.414 175.619 219.538 185.308C219.538 192.389 215.812 198.6 208.98 198.6Z" fill="#FD6C67" stroke="#FD6C67" stroke-width="3" stroke-linecap="round" stroke-linejoin="round"/>
<path d="M206.247 165.308C221.65 162.451 237.054 157.234 245.252 154.377C250.221 152.638 257.675 148.787 261.153 144.812C264.507 140.837 263.14 134.377 259.414 130.775C255.314 126.8 248.731 127.794 243.141 128.787C237.302 129.905 219.663 136.116 202.023 136.116" fill="#FD6C67"/>
<path d="M206.247 165.308C221.65 162.451 237.054 157.234 245.252 154.377C250.221 152.638 257.675 148.787 261.153 144.812C264.507 140.837 263.14 134.377 259.414 130.775C255.314 126.8 248.731 127.794 243.141 128.787C237.302 129.905 219.663 136.116 202.023 136.116" stroke="#FD6C67" stroke-width="3" stroke-linecap="round" stroke-linejoin="round"/>
<path d="M230.718 118.85L225.128 154.005C224.756 156.614 226.495 158.974 229.103 159.471L245.004 161.955C247.612 162.328 249.973 160.589 250.47 157.98L256.059 122.826C256.432 120.217 254.693 117.857 252.084 117.36L236.184 114.875C233.575 114.503 231.215 116.242 230.718 118.85Z" fill="#A31745" stroke="#A31745" stroke-width="3" stroke-linecap="round" stroke-linejoin="round"/>
<path d="M240.531 125.433L241.277 120.837" stroke="#FD6C67" stroke-width="3" stroke-linecap="round" stroke-linejoin="round"/>
<path d="M229.227 157.359L235.686 117.111" stroke="#FD6C67" stroke-width="3" stroke-linecap="round" stroke-linejoin="round"/>
<path d="M136.434 164.19C147.489 165.184 158.669 164.066 169.228 160.961C181.153 157.482 187.24 153.88 190.718 151.52C195.687 148.166 197.178 145.93 195.936 138.228C195.687 136.365 195.563 134.377 194.445 132.762C193.079 130.775 190.346 129.905 187.986 129.905C187.24 129.905 186.495 130.029 185.75 130.154L185.377 127.297C185.253 125.558 184.756 123.943 184.01 122.452C183.017 121.086 181.153 120.092 179.538 120.837C177.675 121.707 177.302 124.191 177.054 126.303C176.681 129.284 175.315 132.141 173.203 134.253C171.588 135.495 169.725 136.365 167.862 136.737C161.402 138.352 154.57 138.352 148.11 136.737" stroke="#A31745" stroke-width="3" stroke-linecap="round" stroke-linejoin="round"/>
<path d="M189.102 137.608C191.338 137.235 193.325 136.49 195.313 135.372" stroke="#A31745" stroke-width="3" stroke-linecap="round" stroke-linejoin="round"/>
<path d="M243.389 83.4472L241.898 79.2236" stroke="#90A4AE" stroke-width="3" stroke-linecap="round" stroke-linejoin="round"/>
<path d="M259.039 85.186L259.784 81.2109" stroke="#90A4AE" stroke-width="3" stroke-linecap="round" stroke-linejoin="round"/>
<path d="M271.957 92.8883L274.938 90.0312" stroke="#90A4AE" stroke-width="3" stroke-linecap="round" stroke-linejoin="round"/>
<path d="M277.426 108.167L281.277 108.291" stroke="#90A4AE" stroke-width="3" stroke-linecap="round" stroke-linejoin="round"/>
<path d="M231.338 94.1299L228.48 91.6455" stroke="#90A4AE" stroke-width="3" stroke-linecap="round" stroke-linejoin="round"/>
<path d="M71.8363 94.9996C79.6622 94.9996 86.1217 88.6644 86.1217 80.7142C86.1217 72.8882 79.7864 66.4287 71.8363 66.4287C64.0103 66.4287 57.5508 72.764 57.5508 80.7142C57.5508 88.6644 63.8861 94.9996 71.8363 94.9996Z" stroke="#CFD8DC" stroke-width="3" stroke-linecap="round" stroke-linejoin="round"/>
<path d="M91.8359 79.5963L97.5501 79.2236" stroke="#CFD8DC" stroke-width="3" stroke-linecap="round" stroke-linejoin="round"/>
<path d="M46 82.3287L51.7142 81.9561" stroke="#CFD8DC" stroke-width="3" stroke-linecap="round" stroke-linejoin="round"/>
<path d="M88.6094 69.6583L93.3298 66.5527" stroke="#CFD8DC" stroke-width="3" stroke-linecap="round" stroke-linejoin="round"/>
<path d="M50.2227 94.9991L54.9431 91.8936" stroke="#CFD8DC" stroke-width="3" stroke-linecap="round" stroke-linejoin="round"/>
<path d="M80.7812 62.8265L83.3899 57.7334" stroke="#CFD8DC" stroke-width="3" stroke-linecap="round" stroke-linejoin="round"/>
<path d="M60.2852 103.943L62.8938 98.8496" stroke="#CFD8DC" stroke-width="3" stroke-linecap="round" stroke-linejoin="round"/>
<path d="M70.5953 60.7142L70.2227 55" stroke="#CFD8DC" stroke-width="3" stroke-linecap="round" stroke-linejoin="round"/>
<path d="M73.3297 106.552L72.957 100.838" stroke="#CFD8DC" stroke-width="3" stroke-linecap="round" stroke-linejoin="round"/>
<path d="M60.6563 64.0681L57.5508 59.3477" stroke="#CFD8DC" stroke-width="3" stroke-linecap="round" stroke-linejoin="round"/>
<path d="M86.0001 102.328L82.8945 97.6074" stroke="#CFD8DC" stroke-width="3" stroke-linecap="round" stroke-linejoin="round"/>
<path d="M53.8275 71.7696L48.7344 69.2852" stroke="#CFD8DC" stroke-width="3" stroke-linecap="round" stroke-linejoin="round"/>
<path d="M94.9446 92.2659L89.8516 89.6572" stroke="#CFD8DC" stroke-width="3" stroke-linecap="round" stroke-linejoin="round"/>
<path fill-rule="evenodd" clip-rule="evenodd" d="M65.254 79.4713C65.254 79.2229 65.1297 78.8502 64.8813 78.6018C64.7571 78.3533 64.5086 78.2291 64.136 78.1049C63.8875 77.9807 63.5149 77.9807 63.2664 78.1049C63.018 78.2291 62.6453 78.3533 62.5211 78.6018C62.2727 78.8502 62.1484 79.0987 62.1484 79.3471C62.1484 79.5955 62.1484 79.9682 62.2727 80.2166C62.3969 80.4651 62.6453 80.7135 62.8938 80.8378C63.1422 80.962 63.5149 81.0862 63.7633 81.0862C64.0118 81.0862 64.136 80.962 64.3844 80.962C64.6329 80.8378 64.7571 80.7135 64.8813 80.5893C65.0055 80.4651 65.1298 80.2167 65.1298 80.0924C65.254 79.9682 65.254 79.7198 65.254 79.4713Z" fill="#CFD8DC"/>
<path fill-rule="evenodd" clip-rule="evenodd" d="M81.1563 78.6022C81.1563 78.3537 81.0321 77.9811 80.7836 77.7326C80.6594 77.4842 80.411 77.36 80.0383 77.2357C79.7899 77.1115 79.4172 77.1115 79.1688 77.2357C78.9203 77.36 78.5477 77.4842 78.4234 77.7326C78.175 77.9811 78.0508 78.2295 78.0508 78.478C78.0508 78.7264 78.0508 79.0991 78.175 79.3475C78.2992 79.596 78.5477 79.8444 78.7961 79.9686C79.0446 80.0928 79.4172 80.2171 79.6657 80.2171C80.0383 80.2171 80.411 79.9686 80.6594 79.7202C81.0321 79.3475 81.2805 78.9748 81.1563 78.6022Z" fill="#CFD8DC"/>
<path d="M74.3236 78.7266L74.4478 80.2172C74.4478 80.9625 74.1993 81.7079 73.7025 82.329C73.2056 82.9501 72.4602 83.1985 71.7149 83.3228C71.3422 83.3228 70.9696 83.3228 70.5969 83.1985C70.2243 83.0743 69.8516 82.8259 69.6032 82.7016C69.3547 82.4532 69.1063 82.2048 68.982 81.8321C68.8578 81.4594 68.7336 81.0868 68.7336 80.7141L68.6094 79.2234" stroke="#CFD8DC" stroke-width="3" stroke-linecap="round" stroke-linejoin="round"/>
<path fill-rule="evenodd" clip-rule="evenodd" d="M192.457 89.6574C192.457 88.9121 192.705 88.1668 193.078 87.5456C193.451 86.9245 194.072 86.4277 194.817 86.055C195.563 85.8065 196.308 85.6823 197.053 85.8065C197.799 85.9308 198.544 86.3034 199.041 86.9245C199.538 87.4214 199.91 88.1668 200.159 88.9121C200.283 89.6574 200.283 90.4027 199.91 91.1481C199.662 91.8934 199.165 92.5145 198.42 92.8872C197.799 93.2598 197.053 93.5083 196.308 93.5083C195.811 93.5083 195.314 93.3841 194.817 93.2598C194.32 93.0114 193.948 92.7629 193.575 92.3903C193.202 92.0176 192.954 91.645 192.705 91.1481C192.457 90.6512 192.457 90.1543 192.457 89.6574Z" fill="#A31745"/>
<path fill-rule="evenodd" clip-rule="evenodd" d="M156.059 89.6574C156.059 88.9121 156.307 88.1668 156.68 87.5456C157.052 86.9245 157.673 86.4277 158.419 86.055C159.164 85.8065 159.909 85.6823 160.655 85.8065C161.4 85.9308 162.145 86.3034 162.642 86.9245C163.139 87.4214 163.512 88.1668 163.76 88.9121C163.885 89.6574 163.885 90.4027 163.512 91.1481C163.263 91.8934 162.767 92.5145 162.021 92.8872C161.4 93.2598 160.655 93.5083 159.909 93.5083C158.916 93.5083 157.922 93.1356 157.177 92.3903C156.431 91.645 156.059 90.6512 156.059 89.6574Z" fill="#A31745"/>
<path d="M180.781 110.775H175.439C172.334 110.775 169.477 109.533 167.241 107.422C165.129 105.31 163.887 102.328 163.887 99.2229V97.8564H192.458V99.2229C192.458 100.714 192.209 102.204 191.588 103.695C190.967 105.061 190.097 106.428 189.104 107.422C187.986 108.539 186.743 109.285 185.377 109.906C183.762 110.527 182.272 110.9 180.781 110.775Z" fill="#A31745" stroke="#A31745" stroke-width="3.41" stroke-linecap="round" stroke-linejoin="round"/>
<path d="M186.247 109.409C183.389 105.061 180.036 102.08 172.458 102.08C169.725 102.08 167.116 102.453 164.508 103.322C165.377 105.558 166.744 107.422 168.731 108.788C170.719 110.154 172.955 110.9 175.315 110.9H180.657C182.644 110.9 184.507 110.403 186.247 109.409Z" fill="#FD6C67" stroke="#A31745" stroke-width="3.41" stroke-linecap="round" stroke-linejoin="round"/>
</g>
<defs>
<clipPath id="clip0_6058_4786">
<rect width="310" height="172" fill="white"/>
</clipPath>
</defs>
</svg>

<svg width="310" height="172" fill="none" viewBox="0 0 310 172" xmlns="http://www.w3.org/2000/svg"><g clip-path="url(#a)"><path d="M208.98 198.6H83.392c-14.783 0-11.056-34.161-4.97-46.211 8.2-15.9 20.746-20.621 34.162-26.211 6.211-2.608 19.254-11.552 22.111-23.602 3.106-12.919 10.932-23.974 21.49-29.937 10.932-5.963 26.087-6.584 37.143-.87 6.211 3.23 13.043 9.193 15.652 14.907 2.981 6.584 4.223 14.658 5.093 23.354 1.366 15.03 2.608 30.31 3.478 43.477 1.118 15.776 1.863 22.112 1.987 31.801 0 7.081-3.726 13.292-10.558 13.292Z" fill="#FD6C67" stroke="#FD6C67" stroke-width="3" stroke-linecap="round" stroke-linejoin="round"/><path d="M206.247 165.308c15.403-2.857 30.807-8.074 39.005-10.931 4.969-1.739 12.423-5.59 15.901-9.565 3.354-3.975 1.987-10.435-1.739-14.037-4.1-3.975-10.683-2.981-16.273-1.988-5.839 1.118-23.478 7.329-41.118 7.329" fill="#FD6C67"/><path d="M206.247 165.308c15.403-2.857 30.807-8.074 39.005-10.931 4.969-1.739 12.423-5.59 15.901-9.565 3.354-3.975 1.987-10.435-1.739-14.037-4.1-3.975-10.683-2.981-16.273-1.988-5.839 1.118-23.478 7.329-41.118 7.329" stroke="#FD6C67" stroke-width="3" stroke-linecap="round" stroke-linejoin="round"/><path d="m230.718 118.85-5.59 35.155c-.372 2.609 1.367 4.969 3.975 5.466l15.901 2.484c2.608.373 4.969-1.366 5.466-3.975l5.589-35.154c.373-2.609-1.366-4.969-3.975-5.466l-15.9-2.485c-2.609-.372-4.969 1.367-5.466 3.975Z" fill="#A31745" stroke="#A31745" stroke-width="3" stroke-linecap="round" stroke-linejoin="round"/><path d="m240.531 125.433.746-4.596M229.227 157.359l6.459-40.248" stroke="#FD6C67" stroke-width="3" stroke-linecap="round" stroke-linejoin="round"/><path d="M136.434 164.19a88.46 88.46 0 0 0 32.794-3.229c11.925-3.479 18.012-7.081 21.49-9.441 4.969-3.354 6.46-5.59 5.218-13.292-.249-1.863-.373-3.851-1.491-5.466-1.366-1.987-4.099-2.857-6.459-2.857-.746 0-1.491.124-2.236.249l-.373-2.857c-.124-1.739-.621-3.354-1.367-4.845-.993-1.366-2.857-2.36-4.472-1.615-1.863.87-2.236 3.354-2.484 5.466-.373 2.981-1.739 5.838-3.851 7.95-1.615 1.242-3.478 2.112-5.341 2.484a40.868 40.868 0 0 1-19.752 0" stroke="#A31745" stroke-width="3" stroke-linecap="round" stroke-linejoin="round"/><path d="M189.102 137.608c2.236-.373 4.223-1.118 6.211-2.236" stroke="#A31745" stroke-width="3" stroke-linecap="round" stroke-linejoin="round"/><path d="m243.389 83.447-1.491-4.223M259.039 85.186l.745-3.975M271.957 92.888l2.981-2.857M277.426 108.167l3.851.124M231.338 94.13l-2.858-2.484" stroke="#90A4AE" stroke-width="3" stroke-linecap="round" stroke-linejoin="round"/><path d="M71.836 95c7.826 0 14.286-6.336 14.286-14.286 0-7.826-6.336-14.285-14.286-14.285-7.826 0-14.285 6.335-14.285 14.285S63.886 95 71.836 95ZM91.836 79.596l5.714-.372M46 82.329l5.714-.373M88.61 69.658l4.72-3.105M50.223 95l4.72-3.106M80.781 62.827l2.609-5.094M60.285 103.943l2.609-5.093M70.595 60.714 70.223 55M73.33 106.552l-.373-5.714M60.656 64.068l-3.105-4.72M86 102.328l-3.106-4.72M53.828 71.77l-5.094-2.485M94.945 92.266l-5.093-2.609" stroke="#CFD8DC" stroke-width="3" stroke-linecap="round" stroke-linejoin="round"/><path fill-rule="evenodd" clip-rule="evenodd" d="M65.254 79.471c0-.248-.124-.62-.373-.87-.124-.248-.372-.372-.745-.496a1.061 1.061 0 0 0-.87 0c-.248.124-.62.248-.745.497-.248.248-.373.497-.373.745 0 .249 0 .621.125.87.124.248.372.496.62.62.25.125.622.25.87.25.249 0 .373-.125.621-.125.249-.124.373-.249.497-.373s.249-.372.249-.497c.124-.124.124-.372.124-.62ZM81.156 78.602c0-.248-.124-.62-.372-.87-.125-.248-.373-.372-.746-.496a1.061 1.061 0 0 0-.87 0c-.248.124-.62.248-.745.497-.248.248-.372.496-.372.745 0 .248 0 .621.124.87.124.248.373.496.621.62.249.125.621.25.87.25.372 0 .745-.25.993-.498.373-.373.621-.745.497-1.118Z" fill="#CFD8DC"/><path d="m74.324 78.727.124 1.49c0 .746-.249 1.49-.745 2.112-.497.621-1.243.87-1.988.994-.373 0-.745 0-1.118-.124-.373-.125-.745-.373-.994-.497-.248-.249-.497-.497-.621-.87s-.248-.745-.248-1.118l-.125-1.49" stroke="#CFD8DC" stroke-width="3" stroke-linecap="round" stroke-linejoin="round"/><path fill-rule="evenodd" clip-rule="evenodd" d="M192.457 89.657c0-.745.248-1.49.621-2.111.373-.622.994-1.118 1.739-1.491.746-.249 1.491-.373 2.236-.249.746.125 1.491.497 1.988 1.118.497.497.869 1.243 1.118 1.988.124.745.124 1.49-.249 2.236a2.936 2.936 0 0 1-1.49 1.74c-.621.372-1.367.62-2.112.62-.497 0-.994-.124-1.491-.248-.497-.249-.869-.497-1.242-.87-.373-.372-.621-.745-.87-1.242-.248-.497-.248-.994-.248-1.49ZM156.059 89.657c0-.745.248-1.49.621-2.111.372-.622.993-1.118 1.739-1.491.745-.249 1.49-.373 2.236-.249.745.125 1.49.497 1.987 1.118.497.497.87 1.243 1.118 1.988.125.745.125 1.49-.248 2.236a2.938 2.938 0 0 1-1.491 1.74c-.621.372-1.366.62-2.112.62a3.853 3.853 0 0 1-2.732-1.118 3.85 3.85 0 0 1-1.118-2.733Z" fill="#A31745"/><path d="M180.781 110.775h-5.342c-3.105 0-5.962-1.242-8.198-3.353-2.112-2.112-3.354-5.094-3.354-8.2v-1.366h28.571v1.367c0 1.491-.249 2.981-.87 4.472-.621 1.366-1.491 2.733-2.484 3.727-1.118 1.117-2.361 1.863-3.727 2.484-1.615.621-3.105.994-4.596.869Z" fill="#A31745" stroke="#A31745" stroke-width="3.41" stroke-linecap="round" stroke-linejoin="round"/><path d="M186.247 109.409c-2.858-4.348-6.211-7.329-13.789-7.329-2.733 0-5.342.373-7.95 1.242.869 2.236 2.236 4.1 4.223 5.466 1.988 1.366 4.224 2.112 6.584 2.112h5.342c1.987 0 3.85-.497 5.59-1.491Z" fill="#FD6C67" stroke="#A31745" stroke-width="3.41" stroke-linecap="round" stroke-linejoin="round"/></g><defs><clipPath id="a"><path fill="#fff" d="M0 0h310v172H0z"/></clipPath></defs></svg>
